src/ui/assets/standard-lasso.svg

<svg width="100" height="100" viewBox="0 0 100 100" fill="none" xmlns="http://www.w3.org/2000/svg">
<path d="M84.7602 35.168C83.3162 26.992 72.4922 21.5 57.8222 21.5C54.1852 21.5 50.4372 21.836 46.6812 22.498C27.1892 25.939 13.3792 36.893 15.2402 47.438C15.9782 51.627 19.1872 55.11 24.1072 57.512C23.3592 58.639 22.9212 59.918 22.9212 61.282C22.9212 65.175 26.3742 68.434 30.9662 69.223L27.0032 76.014C26.5442 76.803 26.8102 77.815 27.5992 78.274C27.8612 78.428 28.1482 78.501 28.4312 78.501C28.9992 78.501 29.5522 78.208 29.8612 77.681L34.7522 69.294C39.5762 68.669 43.2752 65.345 43.3052 61.329C43.3072 61.313 43.3092 61.298 43.3092 61.282C43.3092 61.214 43.2992 61.149 43.2952 61.083C46.5822 61.021 49.9452 60.704 53.3182 60.108C72.8112 56.668 86.6212 45.713 84.7602 35.168ZM26.2292 61.281C26.2292 60.386 26.6022 59.539 27.2392 58.812C27.5942 58.937 27.9542 59.056 28.3212 59.171L31.8822 66.017C28.7132 65.596 26.2292 63.6 26.2292 61.281ZM35.4882 65.789L32.6012 60.24L30.7922 56.76C31.1462 56.668 31.5132 56.596 31.8902 56.545C32.2882 56.49 32.6972 56.461 33.1152 56.461C34.5902 56.461 35.9692 56.809 37.1032 57.385C38.7612 58.229 39.8842 59.569 39.9862 61.061C39.9902 61.135 40.0022 61.207 40.0022 61.282C40.0022 63.314 38.0922 65.096 35.4882 65.789ZM52.7152 56.689C49.1722 57.314 45.6432 57.632 42.2192 57.634C40.5412 54.98 37.0922 53.154 33.1152 53.154C31.7422 53.154 30.4332 53.375 29.2382 53.769C28.3472 54.062 27.5272 54.46 26.7852 54.933C22.2322 53.017 19.2522 50.193 18.6582 46.833C17.1872 38.493 30.2972 28.915 47.2852 25.917C50.8422 25.288 54.3872 24.972 57.8222 24.972C70.5472 24.972 80.2182 29.411 81.3422 35.771C82.8122 44.111 69.7032 53.691 52.7152 56.689Z" fill="black"/>
</svg>

<svg xmlns="http://www.w3.org/2000/svg" width="100" height="100" fill="none"><path fill="#000" d="M84.76 35.168C83.316 26.992 72.492 21.5 57.822 21.5a64.4 64.4 0 0 0-11.14.998c-19.493 3.441-33.303 14.395-31.442 24.94.738 4.189 3.947 7.672 8.867 10.074-.748 1.127-1.186 2.406-1.186 3.77 0 3.893 3.453 7.152 8.045 7.941l-3.963 6.791a1.653 1.653 0 0 0 1.428 2.487c.568 0 1.121-.293 1.43-.82l4.891-8.387c4.824-.625 8.523-3.949 8.553-7.965.002-.016.004-.031.004-.047 0-.068-.01-.133-.014-.199a64.705 64.705 0 0 0 10.023-.975c19.493-3.44 33.303-14.395 31.442-24.94ZM26.23 61.281c0-.895.372-1.742 1.01-2.469.354.125.714.244 1.081.359l3.561 6.846c-3.169-.421-5.653-2.417-5.653-4.736Zm9.258 4.508-2.887-5.549-1.809-3.48a9.352 9.352 0 0 1 2.323-.299c1.475 0 2.854.348 3.988.924 1.658.844 2.781 2.184 2.883 3.676.004.074.016.146.016.221 0 2.032-1.91 3.814-4.514 4.507Zm17.227-9.1a60.811 60.811 0 0 1-10.496.945c-1.678-2.654-5.127-4.48-9.104-4.48a12.39 12.39 0 0 0-3.877.615 10.89 10.89 0 0 0-2.453 1.164c-4.553-1.916-7.533-4.74-8.127-8.1-1.47-8.34 11.64-17.918 28.627-20.916a60.71 60.71 0 0 1 10.537-.945c12.725 0 22.396 4.439 23.52 10.799 1.47 8.34-11.639 17.92-28.627 20.918Z"/></svg>
